images/telegram-icon.svg

<svg width="40" height="40" viewBox="0 0 40 40" fill="none" xmlns="http://www.w3.org/2000/svg">
<circle cx="20" cy="20" r="20" fill="white" fill-opacity="0.3"/>
<g clip-path="url(#clip0_48539_806)">
<path d="M25.4431 14.0736L13.6231 18.6316C12.8164 18.9556 12.8211 19.4056 13.4751 19.6062L16.5097 20.5529L23.5311 16.1229C23.8631 15.9209 24.1664 16.0296 23.9171 16.2509L18.2284 21.3849H18.2271L18.2284 21.3856L18.0191 24.5136C18.3257 24.5136 18.4611 24.3729 18.6331 24.2069L20.1071 22.7736L23.1731 25.0382C23.7384 25.3496 24.1444 25.1896 24.2851 24.5149L26.2977 15.0296C26.5037 14.2036 25.9824 13.8296 25.4431 14.0736Z" fill="#444444"/>
</g>
<defs>
<clipPath id="clip0_48539_806">
<rect width="14" height="12" fill="white" transform="translate(13 14)"/>
</clipPath>
</defs>
</svg>

<svg xmlns="http://www.w3.org/2000/svg" width="40" height="40" fill="none"><circle cx="20" cy="20" r="20" fill="#fff" fill-opacity=".3"/><g clip-path="url(#a)"><path fill="#444" d="m25.44 14.07-11.82 4.56c-.8.33-.8.78-.14.98l3.03.94 7.02-4.43c.33-.2.64-.09.39.13l-5.7 5.13-.2 3.13c.3 0 .44-.14.61-.3l1.48-1.44 3.06 2.27c.57.31.97.15 1.12-.53l2-9.48c.21-.83-.3-1.2-.85-.96Z"/></g><defs><clipPath id="a"><path fill="#fff" d="M13 14h14v12H13z"/></clipPath></defs></svg>
